sites/Tartarya/images/main/flag-icon_.svg

<svg width="30" height="30" viewBox="0 0 30 30" fill="none" xmlns="http://www.w3.org/2000/svg">
<path d="M28.9091 0.0285215C28.2614 -0.101789 27.6136 0.223988 27.375 0.810386C27 1.62483 23.3864 5.20837 20.2841 5.33869C18.5114 5.40384 16.875 4.23104 15.1364 2.99309C12.8864 1.42936 10.3977 -0.329833 7.19318 0.256565C2.45455 1.10359 0.238636 5.1758 0.136364 5.37126C5.07994e-08 5.63188 -0.0340909 5.95766 0.0340909 6.25086L1.39773 12.0823L5.38636 28.9901C5.52273 29.6091 6.10227 30 6.71591 30C6.81818 30 6.92045 30 7.02273 29.9674C7.77273 29.8045 8.21591 29.1204 8.04545 28.4037L5.72727 18.5327C6.34091 17.6205 8.07955 15.3726 10.8068 14.7862C12.4432 14.4279 13.7386 14.8514 15.2386 15.3075C16.9091 15.8287 18.8182 16.4477 21.2727 15.9264C26.4205 14.7862 29.8977 8.92223 30 1.29905C30 0.680075 29.5568 0.158832 28.9091 0.0285215ZM20.6591 13.3854C18.9545 13.7437 17.625 13.3202 16.0909 12.8316C14.4205 12.3103 12.5455 11.6913 10.1932 12.2126C7.875 12.7012 6.13636 14.0044 4.94318 15.2423L4.80682 14.6559L2.79545 6.18571C3.375 5.33869 4.97727 3.31887 7.67045 2.8302C9.71591 2.47185 11.4545 3.67722 13.4659 5.11064C15.4091 6.4789 17.6591 8.04263 20.3523 7.9449C22.6364 7.84717 24.9886 6.57664 26.8295 5.14322C26.0455 9.05254 24.0341 12.6361 20.6591 13.3854Z" fill="#688494"/>
</svg>

<svg width="30" height="30" fill="none" xmlns="http://www.w3.org/2000/svg"><path d="M28.91.029c-.649-.13-1.296.195-1.535.781-.375.815-3.989 4.398-7.09 4.529-1.774.065-3.41-1.108-5.149-2.346C12.886 1.43 10.398-.33 7.193.257 2.455 1.104.24 5.176.136 5.37c-.136.26-.17.587-.102.88l1.364 5.831L5.386 28.99c.137.62.716 1.01 1.33 1.01.102 0 .204 0 .307-.033.75-.162 1.193-.847 1.022-1.563l-2.318-9.871c.614-.913 2.353-3.16 5.08-3.747 1.636-.358 2.932.065 4.432.521 1.67.522 3.58 1.14 6.034.62C26.42 14.786 29.898 8.921 30 1.298c0-.619-.443-1.14-1.09-1.27Zm-8.25 13.356c-1.706.359-3.035-.065-4.57-.553-1.67-.522-3.544-1.14-5.897-.62-2.318.49-4.057 1.792-5.25 3.03l-.136-.586-2.012-8.47c.58-.847 2.182-2.867 4.875-3.356 2.046-.358 3.784.847 5.796 2.28 1.943 1.369 4.193 2.933 6.886 2.835 2.284-.098 4.637-1.368 6.477-2.802-.784 3.91-2.795 7.493-6.17 8.242Z" fill="#688494"/></svg>
